X:251
T:The pure drop
T:Tom Steele
T:Hand me down the tackle
R:Reel
O:Ireland
B:O'Neill's 1305 -The pure drop
B:O'Neill's 1271 -Tom Steele
B:Sully's Irish -Hand me down the tackle (?)
S:1 O'Neill's 1305
Z:1 Transcription:Trish O'Neill, minor arr., chords:Mike Long
S:2 Richard Robinson's web page/abc file- Hand down the tackle
Z:2 Transcription:Richard Robinson(?), Chords:Mike Long
M:C|
L:1/8
K:D
"D"d>D~D2 (FD)FA|"D"d2(ef) "G"gfge|"D"d>D~D2 (FD)FA|\
"A"BEEF "G"GABc|"D"d>D~D2 (FD)FA|"D"d2ef "G"g2fg|
"D"afge fded|"A"BEEF "G"GABc:|\
|:"D"d2(fd) adfd|\
"D"d2ef "G"g2fe|"D"d2(fd) adfd|
"A"BEEF "G"GABc|"D"d2(fd) adfd|"D"d2ef "G"g2fg|\
"D"afge fded|"A"BEEF "G"GABc:|
P:Arr. 2
"D"dD ~D2 FDFA|"D"dfaf "A"gfec|"D"dD ~D2 FDFA|\
"G"GFEF "A"GABc|"D"dD ~D2 FDFA|dfaf "G"g2fe|
"D"d2dc "A"dcBA|"G"G2EF "A"GABc:|\
|:"D"d2fd Adfd|\
"D"Adfd "A"BABc|"D"d2fd Adfd|
"G"~B2 BA "A"BABc|"D"d2fd Adfd|"D"Adfd "G"g2fg|\
"D"agfe "A"dcBA|"G"G2EF "A"GABc:|
